X: 21063
M: 6/8
L: 1/8
K: Bb
V: 1 name="3"
(3(F/G/A/) |\
e3 cde | d2d dcB | A2A AGA | B2d f2d |\
e3 cde | d3 dcB | A2A AGA | Bdc BA"^D.C."G |]


